-- Title: Non-confidence ratio

cps 1.4

d1 $ sound "bd*3 ~ <bd hh> ~"
d2 $ sound "arpy*3 clubkick/2" # gain "0.8" # speed (irand 5)
d3 $ sound "[cc]/4" # crush "3" # gain "0.6"
d3 silence
d2 silence
d1 silence
hush
