-- Title: snack
-- Recorded: 11/15/2020

setcps (120/60/4)
d1 $ s "808bd*4"
-- d2 $ fast 2 $ s "supermandolin(5, 11)" # note "bf a c d e f a" # legato 2 # room 0.8 # pan (cosine) # lpf "900"
d2 $ jux (rev) $ fast 2 $ s "supermandolin*4" # note "<bf a c f a e> <c a bf> <e bf> f a" # legato 2 # room (choose [0.1..0.8]) # lpf 1200 # pan (cosine)
d3 $ s "[~ 808lt]*2"
d4 $ s "808sd*8" # speed (choose [0.2..0.5]) # vowel "a"
solo 2
xfade 2 $ s "~"
