-- Title: First Day
cps 1.0

d1 $ sound "arpy(3,8)" # n "0 2"
d1 $ sound "arpy(3,8)" # n (every 4 (* 2) "0 2")
d2 $ sound "arpy(3,8)" # n "2 5"
d2 $ sound "arpy(3,8)" # n ("[2 .. 10]" * 2)
d2 $ sound "arpy(3,8)" # n (every 2 (* 2) "[2 .. 10]" * 2)
d3 $ sound "hh:2(5,8)"
d3 $ sound "hh:2(5,8,3)"
d4 $ sound "~ ~ birds/4"
d5 $ sound "808cy(3,8)" # n "2 8 2"
d2 $ sound "arpy(5,8)" # n "[2 .. 10]" -- 2 to 5
d6 $ sound "arpy(3,8)" # n "5 3"
d1 silence
d2 silence
d5 silence
d6 silence
d3 silence
hush
