-- Title: Celebrating Wins
-- Recorded 11/9/2020
setcps 1
d1 $ s "808:2(5, 8)" # speed (range 0.5 1 sine)
xfade 1 $ jux (|+ speed 0.25) $ s "808:2(5,8)" # speed (range (choose [0.5..0.8]) (choose [1..1.4]) sine)
d2 $ s "808*2" # n "<0 1*2> 3"
d3 $ s "[~ lt]*2" # speed "0.4"
d4 $ stack [s "~ cp", s "~ sid/2"]
d5 $ every 2 (fast 2) $ s "808:4*4"
d1 $ rev $ jux (|+ speed 0.25) $ s "808:2(5,8)" # speed (range (choose [0.5..0.8]) (choose [1..1.4]) saw)
solo 1
hush
