-- Title: Chalk
-- Recorded: 11/14/2020

setcps 0.9
d1 $ s "sundance*4" -- # note "c3" # lpf 800
d1 $ layer [id, (# note "<ef e es>"), (# note "g")] $ s "sundance*4"
d6 $ s "808oh*2"
d2 $ every 3 (slow 2) $ s "control(5,8)" # note "<a g e fs> <bf fs a> g <a <b c>>" # vowel "a" # octave (choose [0..4])
d3 $ s "tech:5*4"
d4 $ s "~ sid"
d5 $ s "01indoor:4/2" # gain 1.2 -- pole
d7 $ s "bleep/3"
solo 5
hush
