-- Title: Chip
-- Recorded: 11/14/2019

setcps 1.2

d1 $ s "bd bd [bd*2] bd" # n "2" # speed "0.8"
d2 $ s "808:3" # speed "0.8"
d3 $ every 4 (fast 3) $ every 3 (|- speed "0.5") $ s "808:2(3,5)" # speed (choose [0.8,1,1.2,1.4])
d4 $ s "~ sn ~ sn" # vowel "e" # crush "5"
d5 $ s "bass3*4"
d6 $ s "hh*2"
d7 $ s "toys/4" # crush "5"
d7 silence
d3 silence
d3 $ every 2 (slow 3) $ s "notes*64" # speed "0.3" # n (choose [1,3,4,2])
solo 2
unsolo 2
solo 3
hush
unsolo 3
