-- Title: Count

d1 $ every 4 (fast 3) $ s "bass3*4" # speed "1"
d3 $ jux (fast 3) $ every 3 (|+ speed "1") $ s "sd*4" # speed "1 3 1 3"
d4 $ s "popkick sn popkick sn"
d5 $ s "juno(3,8)" # speed (choose [1..3]) # vowel "e"
-- d6 $ slow 3 $ chop 2 $ n "0 1 2" # s "numbers"
d6 $ fast 3 $ n "0 1 2" # s "numbers"
d2 silence
d6 silence
solo 3
unsolo 3
d3 silence
d5 silence
d4 silence
d1 silence
hush
