-- Title: Darkness

cps 1.3

d1 $ sound "bd [808:3/2, hh/3] bd bd" # gain "1.2"
d2 $ rev $ slow 3 $ sound "[arpy:1*3]" # up (every 3 (rev) $ run 4) # crush "4"
d3 $ sound "cp hh*2" # crush "4"
d2 silence
d3 silence
hush
