-- Title: [dark] House
setcps (120/60/4)

d1 $ "~ stab stab ~" # (every 2 (|+ crush "1") $ crush "0 3")
d2 $ "808bd:1*4" # gain "1.4"
d3 $ "popkick ~ popkick ~"
d4 $ "bass3(3,8)" # pan (rand)
d1 $ "toys/3" # crush "3" # n "1"
d5 $ "808:3(32,8)"
d5 $ every 2 (rev) $ n (run 1) # "arpy" # crush "3"
d1 silence
d5 silence
d4 silence
hush
