-- Title: Glacial Erratics
-- Recorded 9/28/2020

setcps 0.7

d1 $ s "bd*4"
d2 $ stack [s "hh*8", every 3 (fast 4) $ s "feel*2" # lpf 500]
d3 $ fast 2 $ s "~ cp"
d4 $ s "notes*8" # speed "<0.8 0.9 1 0.7>" # hpf 500
d5 $ every 2 (fast 8) $ s "control" # n (choose [0,1]) # hpf 500 # gain 1.2 # speed "<1 1.3 0.9>"
xfade 6 $ s "bassfoo*4" # lpf 500
d6 $ "bass3*4"
d3 $ s "cp*4"
d4 $ fast 18 $ s "notes*8" # speed "<1.2 1>" # n "1 2 3 4"
hush
