-- Title: grr
-- 9/5/2019

setcps 0.8

d1 $ s "stab*2"
once $  s "02field:1" # speed "0.5 "-- # crush "3"
-- d3 $ layer [id, fast 2] $ sometimes (# lpf "800") $ striate 3 $ every 3 (fast 2)
xfade 3 $ layer [id, fast 2] $ sometimes (#lpf "900") $ striate 3 $ every 3 (fast 2) $ s "lt*4" # crush "4" # lpf "500"
-- d4 $ often (# speed "0.4") 
d4 $ n "0 2 4 5" # s "casio"
d5 $ s "bass3*4" # crush "3"
d6 $ brak $ s "mt clubkick mt clubkick" # speed "0.5"
hush
