-- Title: Open Hall

d2 $ sound "arpy*3" # speed "2 1 4"
d1 $ sound "[808bd 808bd*3 808mt, 808lc 808lc:4]"
d3 $ sound "808 808 808:3 808"
d2 $ sound "[arp arp, arpy arpy*3 arpy]" # speed "1 3" # pan (rand) # crush "3"
d4 $ sound "bd*3 lt*3 ht" # crush "8"
d2 $ rev $ sound "[arp arp arp, arpy arpy*3]" # crush "3" # speed "1 5 6"
d1 silence
d3 silence
d2 silence
d1 $ chop 20 $ sound "toys" # speed (rand)
d2 $ chop 40 $ sound "01elevators" # pan (rand)
d2 silence
d1 silence
d4 silence


hush
