-- Title: Sourdough
cps 2

d1 $ s "808(5,8)" # n (every 2 (*2) $ choose [1..5])

d2 $ every 2 (|* speed "2") $ every 3 (|+ crush "2") $ s "~ ~ [cp*2] ~" # crush "2" # vowel "a"
d3 $ every 3 (|+ gain "0.2") $ s "[bass1*4,bass/3]" # gain "1"
d4 $ s "blip*4 sn sn sn*2"
d5 $ degradeBy "0.9" $ s "bev"
d4 $ every 2 (|* speed "2") $ s "blip*4 sn sn sn*2"
d1 $ silence
d6 $ whenmod 6 3 (rev) $ every 3 (|+ gain ".1") $ gain "1 1 1.2 1"# s "arp"

d1 ( s "lt" ( vowel "a" ) )

hush
