-- title: succulent
-- recorded: 1/3/2021

setcps 0.8
d1 $ s "wind*8" # lpf 200
d2 $ n "e c" # s "supermandolin"
d2 $ n "<e d a> <c b>" # s "supermandolin"
d2 $ n "<e d a> c" # s "supermandolin" # octave 6 # sustain 2
d2 $ fast 2 $ n "<e d a> <c b c a d>" # s "supermandolin" # sustain 2 # octave 6
d2 $ every 3 (rev) $ fast 2 $ n "<e d a> <c d>" # s "supermandolin" # sustain 2 # octave 6
d3 $ s "~ 808" # speed 0.8 # vowel "<i o>"
setcps (1/3)
hush
