-- Title: tired
-- Recorded: 2/23/2021

setcps 1
d1 $ s "superhex" # n "<e f>" # attack 2 # legato 2 # octave "<4 4 3>" # lpf 200
d2 $ slow 2 $ jux (rev) $ every 3 (fast 2) $ s "arpy*4" # attack 1 # release 2 # n "<1 0 1 3 2> 1 <2 3> <5 2>"
d3 $ every 4 (# octave 4) $ s "moog/5" # octave 3
d4 $ every 4 (fast 4) $ s "bd"
d3 silence
hush
