setcps 1.1

d1 $ s "birds/3" # crush "2"
d2 $ slow 3 $ chop 10 $ s "03chirps" # vowel "o" # speed "1" # pan (rand)
d3 $ s "arp*4" # gain "0.8" # crush "4"
d4 $ s "sd(5,9)" # speed (range 0 5 sine)
solo 2
unsolo 2
d3 silence
d1 silence
d2 silence
xfade 4 $ s "~"
