-- Title: Space Bloop
-- Recorded: ???

d1 $ stack ["bd*4", "808:1*2"]
d2 $ s "[~ 808:3]*2"
d3 $ s "clak*8" # n "0 1 1 <0 2>"
d4 $ s "hh(5,8)!2"
d5 $ sometimes (# crush "4") $ s "bleep?" # n "2" # speed "<0.2 0.4 0.8>"
d6 $ jux (rev) $ "casio!8" # speed (range 0.5 1.3 isaw) # n "1"
hush
