-- Title: Today
-- Recorded: 11/18/2019
setcps 1.2

d1 $ s "notes*5" # speed "0.33"
d2 $ every 2 (|+ speed (choose [0.1, -0.1, 0.2])) $ layer [id, (# speed "1.2"), (# speed "1.2")] $ s "wind*8" # gain "0.5"
d3 $ every 2 (|+ speed "0.0") $ stut 5 0.5 0.1 $ s "notes*5" # n "3" # speed "0.2"
d4 $ s "moog/2" # gain "0.8"
d5 $ s "arp*4"
d5 $ every 3 (|+ speed "0.8") $ every 3 (fast 9) $ s "moog/2" # gain "0.9"
xfade 5 $ s "~"
xfade 4 $ s "~"
solo 2
xfade 2 $ "~"
hush
unsolo 2
