-- Title: ??

d1 $ every 3 (fast 4) $ s "bassfoo*2"
  # lpf (choose [800,900,300])
  # accelerate "<1 0.5 1.2 -0.5>"
  # vowel "e"
d1 $ every 3 (fast 4) $ s "bass3:3*2" # lpf (choose [800,900,300]) # accelerate "<1 0.5 1.2 -0.5>"
d2 $ s "cp cp/2"
d3 $ layer [id, (# speed "0.6"), (# speed "0.8")] $ brak $ s "[hh*4, sn*4]" # speed (range 0.7 1.1 tri)
d1 $ every 4 (|+ lpf "200") $ s "bass2*4" # lpf "<900 800 1500>"
d4 $ s "cc/4" # speed "0.4" # vowel "a"
unsolo 3
setcps 1
hush
